files/fr/web/css/css_media_queries/media-queries.svg

<svg xmlns="http://www.w3.org/2000/svg" style="background-color:#fff" width="1025" height="479" viewBox="-0.5 -0.5 1025 479"><defs><clipPath id="mx-clip-253-212-282-124-0"><path d="M253 212h282v124H253z"/></clipPath><clipPath id="mx-clip-743-227-134-134-0"><path d="M743 227h134v134H743z"/></clipPath><clipPath id="mx-clip-253-162-282-34-0"><path d="M253 162h282v34H253z"/></clipPath><clipPath id="mx-clip-743-202-134-24-0"><path d="M743 202h134v24H743z"/></clipPath><style>@import url(https://fonts.googleapis.com/css?family=Architects+Daughter);</style></defs><path fill="none" pointer-events="all" d="M20 89h634.29v370H20z"/><path d="M588.46 419.51H85.83v-310.7c0-10.89 8.92-19.81 19.93-19.81h462.77c11.01 0 19.93 8.92 19.93 19.81Z" fill="#fff" pointer-events="all"/><path d="M654.29 431.58H380.35v3.67c0 4.2-3.41 7.61-7.6 7.61h-71.21c-4.19 0-7.6-3.41-7.6-7.61v-3.67H20v9.71c0 9.84 7.87 17.71 17.57 17.71h599.15c9.7 0 17.57-7.87 17.57-17.71Zm-87.6-320.8v286.95H107.6V110.78ZM568.53 89H105.76c-11.01 0-19.93 8.92-19.93 19.81v310.7h502.63v-310.7c0-10.89-8.92-19.81-19.93-19.81Z" fill="#005f4b" pointer-events="all"/><path d="M730 116.69c0-7.34 3.03-14.39 8.44-19.58 5.4-5.19 12.72-8.11 20.36-8.11h102.4c7.64 0 14.96 2.92 20.36 8.11 5.41 5.19 8.44 12.24 8.44 19.58v244.62c0 7.34-3.03 14.39-8.44 19.58-5.4 5.19-12.72 8.11-20.36 8.11H758.8c-7.64 0-14.96-2.92-20.36-8.11-5.41-5.19-8.44-12.24-8.44-19.58Zm6.4-.77v246.16h148V115.92Z" fill="#49ab95" stroke="#427368" stroke-miterlimit="10" pointer-events="all"/><ellipse cx="783.6" cy="95.15" rx="2.4" ry="2.308" fill="#fff" stroke="#427368" pointer-events="all"/><rect x="790.8" y="370.54" width="38.4" height="10.77" rx="4.62" ry="4.62" fill="#fff" stroke="#427368" pointer-events="all"/><rect x="791.6" y="94.38" width="36" height="3.85" rx="1.54" ry="1.54" fill="#fff" stroke="#427368" pointer-events="all"/><ellipse cx="834" cy="95.15" rx="2.4" ry="2.308" fill="#fff" stroke="#427368" pointer-events="all"/><ellipse cx="842" cy="95.15" rx="2.4" ry="2.308" fill="#fff" stroke="#427368" pointer-events="all"/><ellipse cx="862" cy="98.23" rx="3.2" ry="3.077" fill="#fff" stroke="#427368" pointer-events="all"/><path fill="#FFF" stroke="#91cbff" stroke-width="2" pointer-events="all" d="M100 109h470v290H100z"/><path d="M100 143.8h470m-451.2-17.4h9.4m14.1 0h9.4m14.1 0h385.4" fill="none" stroke="#91cbff" stroke-width="2" stroke-miterlimit="10" pointer-events="all"/><path fill="none" pointer-events="all" d="M250 209h287.85v130H250z"/><g font-family="Helvetica" clip-path="url(#mx-clip-253-212-282-124-0)" font-size="12"><text x="254.5" y="224.5">Lorem ipsum dolor sit amet, consectetur adipisicing</text><text x="254.5" y="238.5">elit, sed do eiusmod tempor incididunt ut labore et</text><text x="254.5" y="252.5">dolore magna aliqua.</text><text x="254.5" y="294.5">Praesent aliquam, enim at fermentum mollis, ligula</text><text x="254.5" y="308.5">massa adipiscing nisl, ac euismod nibh nisl eu lectus.</text><text x="254.5" y="322.5">Fusce vulputate sem at sapien. Vivamus leo</text></g><path fill="none" pointer-events="all" d="M740 219h140v140H740z"/><g font-family="Helvetica" clip-path="url(#mx-clip-743-227-134-134-0)" font-size="9"><text x="744.5" y="236.5">Lorem ipsum dolor sit amet,</text><text x="744.5" y="247.5">consectetur adipisicing elit, sed </text><text x="744.5" y="258.5">do eiusmod tempor incididunt ut </text><text x="744.5" y="269.5">labore et dolore magna aliqua.</text><text x="744.5" y="291.5">Praesent aliquam, enim at</text><text x="744.5" y="302.5">fermentum mollis, ligula massa</text><text x="744.5" y="313.5">adipiscing nisl, ac euismod nibh</text><text x="744.5" y="324.5">nisl eu lectus. Fusce vulputate</text><text x="744.5" y="335.5">sem at sapien. Vivamus leo</text></g><path d="m106.37 69 457.26.13" fill="none" stroke="#000" stroke-miterlimit="10" pointer-events="stroke"/><path d="m101.12 69 7-3.5-1.75 3.5 1.75 3.5Zm467.76.13-7 3.5 1.75-3.5-1.75-3.5Z" stroke="#000" stroke-miterlimit="10" pointer-events="all"/><g font-family="Helvetica" text-anchor="middle" font-size="18"><path fill="#FFF" stroke-width="0" d="M209 29h243v23H209z"/><text x="329.51" y="46.56">Largeur de la zone d&apos;affichage</text></g><path d="m741.41 69.03 137.18.54" fill="none" stroke="#000" stroke-miterlimit="10" pointer-events="stroke"/><path d="m736.16 69 7.01-3.47-1.76 3.5 1.73 3.5Zm147.68.6-7.01 3.47 1.76-3.5-1.73-3.5Z" stroke="#000" stroke-miterlimit="10" pointer-events="all"/><g font-family="Helvetica" text-anchor="middle" font-size="18"><path fill="#FFF" stroke-width="0" d="M744 18h132v44H744z"/><text x="809.27" y="35.8">Largeur de la</text><text x="809.27" y="57.8">zone d&apos;affichage</text></g><path d="M600 392.48V155.37" fill="none" stroke="#000" stroke-miterlimit="10" pointer-events="stroke"/><path d="m600 397.73-3.5-7 3.5 1.75 3.5-1.75Zm0-247.61 3.5 7-3.5-1.75-3.5 1.75Z" stroke="#000" stroke-miterlimit="10" pointer-events="all"/><g font-family="Helvetica" text-anchor="middle" font-size="18"><path fill="#FFF" stroke-width="0" d="M607 227h88v66h-88z"/><text x="649.5" y="233.35">Hauteur</text><text x="649.5" y="255.35">de la zone</text><text x="649.5" y="277.35">d&apos;affichage</text></g><path d="M910 352.63V125.52" fill="none" stroke="#000" stroke-miterlimit="10" pointer-events="stroke"/><path d="m910 357.88-3.5-7 3.5 1.75 3.5-1.75Zm0-237.61 3.5 7-3.5-1.75-3.5 1.75Z" stroke="#000" stroke-miterlimit="10" pointer-events="all"/><g font-family="Helvetica" text-anchor="middle" font-size="18"><path fill="#FFF" stroke-width="0" d="M917 207h88v66h-88z"/><text x="959.5" y="213.5">Hauteur</text><text x="959.5" y="235.5">de la zone</text><text x="959.5" y="257.5">d&apos;affichage</text></g><path fill="none" pointer-events="all" d="M130 179h100v100H130z"/><path d="M170.91 208.55c3.76 0 6.82 3.05 6.82 6.81s-3.06 6.82-6.82 6.82c-3.76 0-6.82-3.06-6.82-6.82 0-3.76 3.06-6.81 6.82-6.81Zm0 18.18c6.26 0 11.36-5.1 11.36-11.37 0-6.26-5.1-11.36-11.36-11.36-6.27 0-11.36 5.1-11.36 11.36 0 6.27 5.09 11.37 11.36 11.37Zm-36.36 47.72v-21.78l18.18-18.18 34.75 34.75 3.22-3.21-17.71-17.71 25.19-25.2 27.27 27.28v24.05Zm90.9-90.9v60.42l-25.66-25.67c-.89-.89-2.33-.89-3.21 0l-26.81 26.8-15.44-15.43c-.88-.89-2.32-.89-3.21 0l-16.57 16.57v-62.69Zm2.28-4.55h-95.46c-1.25 0-2.27 1.02-2.27 2.27v95.46c0 1.25 1.02 2.27 2.27 2.27h95.46c1.25 0 2.27-1.02 2.27-2.27v-95.46c0-1.25-1.02-2.27-2.27-2.27Z" fill="#d45b07" pointer-events="all"/><path fill="none" pointer-events="all" d="M775 129h70v70h-70z"/><path d="M803.64 149.68a4.776 4.776 0 0 1 0 9.55c-2.63 0-4.78-2.14-4.78-4.78 0-2.63 2.15-4.77 4.78-4.77Zm0 12.73c4.38 0 7.95-3.57 7.95-7.96 0-4.38-3.57-7.95-7.95-7.95-4.39 0-7.96 3.57-7.96 7.95 0 4.39 3.57 7.96 7.96 7.96Zm-25.46 33.41v-15.25l12.73-12.73 24.33 24.33 2.25-2.25-12.4-12.4 17.64-17.63 19.09 19.09v16.84Zm63.64-63.64v42.3l-17.97-17.97c-.62-.62-1.63-.62-2.25 0l-18.76 18.76-10.81-10.8c-.62-.63-1.62-.63-2.25 0l-11.6 11.6v-43.89Zm1.59-3.18h-66.82c-.88 0-1.59.71-1.59 1.59v66.82c0 .88.71 1.59 1.59 1.59h66.82c.88 0 1.59-.71 1.59-1.59v-66.82c0-.88-.71-1.59-1.59-1.59Z" fill="#d45b07" pointer-events="all"/><path fill="none" pointer-events="all" d="M250 159h287.85v40H250z"/><g font-family="Helvetica" clip-path="url(#mx-clip-253-162-282-34-0)" font-size="25"><text x="254.5" y="190">Titre</text></g><path fill="none" pointer-events="all" d="M740 199h140v30H740z"/><g font-family="Helvetica" clip-path="url(#mx-clip-743-202-134-24-0)" font-size="17"><text x="744.5" y="221">Titre</text></g></svg>

<?xml version="1.0" encoding="UTF-8"?>
<!DOCTYPE svg PUBLIC "-//W3C//DTD SVG 1.1//EN" "http://www.w3.org/Graphics/SVG/1.1/DTD/svg11.dtd">
<svg xmlns="http://www.w3.org/2000/svg" style="background-color: rgb(255, 255, 255);" xmlns:xlink="http://www.w3.org/1999/xlink" version="1.1" width="1025px" height="479px" viewBox="-0.5 -0.5 1025 479"><defs><clipPath id="mx-clip-253-212-282-124-0"><rect x="253" y="212" width="282" height="124"/></clipPath><clipPath id="mx-clip-743-227-134-134-0"><rect x="743" y="227" width="134" height="134"/></clipPath><clipPath id="mx-clip-253-162-282-34-0"><rect x="253" y="162" width="282" height="34"/></clipPath><clipPath id="mx-clip-743-202-134-24-0"><rect x="743" y="202" width="134" height="24"/></clipPath><style type="text/css">@import url(https://fonts.googleapis.com/css?family=Architects+Daughter);&#xa;</style></defs><g><rect x="20" y="89" width="634.29" height="370" fill="none" stroke="none" pointer-events="all"/><path d="M 588.46 419.51 L 85.83 419.51 L 85.83 108.81 C 85.83 97.92 94.75 89 105.76 89 L 568.53 89 C 579.54 89 588.46 97.92 588.46 108.81 Z" fill="#ffffff" stroke="none" pointer-events="all"/><rect x="20" y="89" width="0" height="0" fill="none" stroke="none" pointer-events="all"/><path d="M 654.29 431.58 L 380.35 431.58 L 380.35 435.25 C 380.35 439.45 376.94 442.86 372.75 442.86 L 301.54 442.86 C 297.35 442.86 293.94 439.45 293.94 435.25 L 293.94 431.58 L 20 431.58 L 20 441.29 C 20 451.13 27.87 459 37.57 459 L 636.72 459 C 646.42 459 654.29 451.13 654.29 441.29 Z M 566.69 110.78 L 566.69 397.73 L 107.6 397.73 L 107.6 110.78 Z M 568.53 89 L 105.76 89 C 94.75 89 85.83 97.92 85.83 108.81 L 85.83 419.51 L 588.46 419.51 L 588.46 108.81 C 588.46 97.92 579.54 89 568.53 89 Z" fill="#005f4b" stroke="none" pointer-events="all"/><path d="M 730 116.69 C 730 109.35 733.03 102.3 738.44 97.11 C 743.84 91.92 751.16 89 758.8 89 L 861.2 89 C 868.84 89 876.16 91.92 881.56 97.11 C 886.97 102.3 890 109.35 890 116.69 L 890 361.31 C 890 368.65 886.97 375.7 881.56 380.89 C 876.16 386.08 868.84 389 861.2 389 L 758.8 389 C 751.16 389 743.84 386.08 738.44 380.89 C 733.03 375.7 730 368.65 730 361.31 Z Z M 736.4 115.92 L 736.4 362.08 L 884.4 362.08 L 884.4 115.92 Z" fill="#49ab95" stroke="#427368" stroke-miterlimit="10" pointer-events="all"/><ellipse cx="783.6" cy="95.15" rx="2.4000000000000004" ry="2.307692307692308" fill="#ffffff" stroke="#427368" pointer-events="all"/><rect x="790.8" y="370.54" width="38.4" height="10.77" rx="4.62" ry="4.62" fill="#ffffff" stroke="#427368" pointer-events="all"/><rect x="791.6" y="94.38" width="36" height="3.85" rx="1.54" ry="1.54" fill="#ffffff" stroke="#427368" pointer-events="all"/><ellipse cx="834" cy="95.15" rx="2.4000000000000004" ry="2.307692307692308" fill="#ffffff" stroke="#427368" pointer-events="all"/><ellipse cx="842" cy="95.15" rx="2.4000000000000004" ry="2.307692307692308" fill="#ffffff" stroke="#427368" pointer-events="all"/><ellipse cx="862" cy="98.23" rx="3.2" ry="3.076923076923077" fill="#ffffff" stroke="#427368" pointer-events="all"/><rect x="100" y="109" width="470" height="290" fill="rgb(255, 255, 255)" stroke="#91cbff" stroke-width="2" pointer-events="all"/><path d="M 100 143.8 L 570 143.8 M 118.8 126.4 L 128.2 126.4 M 142.3 126.4 L 151.7 126.4 M 165.8 126.4 L 551.2 126.4" fill="none" stroke="#91cbff" stroke-width="2" stroke-miterlimit="10" pointer-events="all"/><rect x="250" y="209" width="287.85" height="130" fill="none" stroke="none" pointer-events="all"/><g fill="rgb(0, 0, 0)" font-family="Helvetica" clip-path="url(#mx-clip-253-212-282-124-0)" font-size="12px"><text x="254.5" y="224.5">Lorem ipsum dolor sit amet, consectetur adipisicing</text><text x="254.5" y="238.5">elit, sed do eiusmod tempor incididunt ut labore et</text><text x="254.5" y="252.5">dolore magna aliqua.</text><text x="254.5" y="294.5">Praesent aliquam, enim at fermentum mollis, ligula</text><text x="254.5" y="308.5">massa adipiscing nisl, ac euismod nibh nisl eu lectus.</text><text x="254.5" y="322.5">Fusce vulputate sem at sapien. Vivamus leo</text></g><rect x="740" y="219" width="140" height="140" fill="none" stroke="none" pointer-events="all"/><g fill="rgb(0, 0, 0)" font-family="Helvetica" clip-path="url(#mx-clip-743-227-134-134-0)" font-size="9px"><text x="744.5" y="236.5">Lorem ipsum dolor sit amet,</text><text x="744.5" y="247.5">consectetur adipisicing elit, sed </text><text x="744.5" y="258.5">do eiusmod tempor incididunt ut </text><text x="744.5" y="269.5">labore et dolore magna aliqua.</text><text x="744.5" y="291.5">Praesent aliquam, enim at</text><text x="744.5" y="302.5">fermentum mollis, ligula massa</text><text x="744.5" y="313.5">adipiscing nisl, ac euismod nibh</text><text x="744.5" y="324.5">nisl eu lectus. Fusce vulputate</text><text x="744.5" y="335.5">sem at sapien. Vivamus leo</text></g><path d="M 106.37 69 L 563.63 69.13" fill="none" stroke="rgb(0, 0, 0)" stroke-miterlimit="10" pointer-events="stroke"/><path d="M 101.12 69 L 108.12 65.5 L 106.37 69 L 108.12 72.5 Z" fill="rgb(0, 0, 0)" stroke="rgb(0, 0, 0)" stroke-miterlimit="10" pointer-events="all"/><path d="M 568.88 69.13 L 561.88 72.63 L 563.63 69.13 L 561.88 65.63 Z" fill="rgb(0, 0, 0)" stroke="rgb(0, 0, 0)" stroke-miterlimit="10" pointer-events="all"/><g fill="rgb(0, 0, 0)" font-family="Helvetica" text-anchor="middle" font-size="18px"><rect fill="rgb(255, 255, 255)" stroke="none" x="209" y="29" width="243" height="23" stroke-width="0"/><text x="329.51" y="46.56">Largeur de la zone d'affichage</text></g><path d="M 741.41 69.03 L 878.59 69.57" fill="none" stroke="rgb(0, 0, 0)" stroke-miterlimit="10" pointer-events="stroke"/><path d="M 736.16 69 L 743.17 65.53 L 741.41 69.03 L 743.14 72.53 Z" fill="rgb(0, 0, 0)" stroke="rgb(0, 0, 0)" stroke-miterlimit="10" pointer-events="all"/><path d="M 883.84 69.6 L 876.83 73.07 L 878.59 69.57 L 876.86 66.07 Z" fill="rgb(0, 0, 0)" stroke="rgb(0, 0, 0)" stroke-miterlimit="10" pointer-events="all"/><g fill="rgb(0, 0, 0)" font-family="Helvetica" text-anchor="middle" font-size="18px"><rect fill="rgb(255, 255, 255)" stroke="none" x="744" y="18" width="132" height="44" stroke-width="0"/><text x="809.27" y="35.8">Largeur de la</text><text x="809.27" y="57.8">zone d'affichage</text></g><path d="M 600 392.48 L 600 155.37" fill="none" stroke="rgb(0, 0, 0)" stroke-miterlimit="10" pointer-events="stroke"/><path d="M 600 397.73 L 596.5 390.73 L 600 392.48 L 603.5 390.73 Z" fill="rgb(0, 0, 0)" stroke="rgb(0, 0, 0)" stroke-miterlimit="10" pointer-events="all"/><path d="M 600 150.12 L 603.5 157.12 L 600 155.37 L 596.5 157.12 Z" fill="rgb(0, 0, 0)" stroke="rgb(0, 0, 0)" stroke-miterlimit="10" pointer-events="all"/><g fill="rgb(0, 0, 0)" font-family="Helvetica" text-anchor="middle" font-size="18px"><rect fill="rgb(255, 255, 255)" stroke="none" x="607" y="227" width="88" height="66" stroke-width="0"/><text x="649.5" y="233.35">Hauteur</text><text x="649.5" y="255.35">de la zone</text><text x="649.5" y="277.35">d'affichage</text></g><path d="M 910 352.63 L 910 125.52" fill="none" stroke="rgb(0, 0, 0)" stroke-miterlimit="10" pointer-events="stroke"/><path d="M 910 357.88 L 906.5 350.88 L 910 352.63 L 913.5 350.88 Z" fill="rgb(0, 0, 0)" stroke="rgb(0, 0, 0)" stroke-miterlimit="10" pointer-events="all"/><path d="M 910 120.27 L 913.5 127.27 L 910 125.52 L 906.5 127.27 Z" fill="rgb(0, 0, 0)" stroke="rgb(0, 0, 0)" stroke-miterlimit="10" pointer-events="all"/><g fill="rgb(0, 0, 0)" font-family="Helvetica" text-anchor="middle" font-size="18px"><rect fill="rgb(255, 255, 255)" stroke="none" x="917" y="207" width="88" height="66" stroke-width="0"/><text x="959.5" y="213.5">Hauteur</text><text x="959.5" y="235.5">de la zone</text><text x="959.5" y="257.5">d'affichage</text></g><rect x="130" y="179" width="100" height="100" fill="none" stroke="none" pointer-events="all"/><path d="M 170.91 208.55 C 174.67 208.55 177.73 211.6 177.73 215.36 C 177.73 219.12 174.67 222.18 170.91 222.18 C 167.15 222.18 164.09 219.12 164.09 215.36 C 164.09 211.6 167.15 208.55 170.91 208.55 Z M 170.91 226.73 C 177.17 226.73 182.27 221.63 182.27 215.36 C 182.27 209.1 177.17 204 170.91 204 C 164.64 204 159.55 209.1 159.55 215.36 C 159.55 221.63 164.64 226.73 170.91 226.73 Z M 134.55 274.45 L 134.55 252.67 L 152.73 234.49 L 187.48 269.24 L 190.7 266.03 L 172.99 248.32 L 198.18 223.12 L 225.45 250.4 L 225.45 274.45 Z M 225.45 183.55 L 225.45 243.97 L 199.79 218.3 C 198.9 217.41 197.46 217.41 196.58 218.3 L 169.77 245.1 L 154.33 229.67 C 153.45 228.78 152.01 228.78 151.12 229.67 L 134.55 246.24 L 134.55 183.55 Z M 227.73 179 L 132.27 179 C 131.02 179 130 180.02 130 181.27 L 130 276.73 C 130 277.98 131.02 279 132.27 279 L 227.73 279 C 228.98 279 230 277.98 230 276.73 L 230 181.27 C 230 180.02 228.98 179 227.73 179 Z" fill="#d45b07" stroke="none" pointer-events="all"/><rect x="775" y="129" width="70" height="70" fill="none" stroke="none" pointer-events="all"/><path d="M 803.64 149.68 C 806.27 149.68 808.41 151.82 808.41 154.45 C 808.41 157.09 806.27 159.23 803.64 159.23 C 801.01 159.23 798.86 157.09 798.86 154.45 C 798.86 151.82 801.01 149.68 803.64 149.68 Z M 803.64 162.41 C 808.02 162.41 811.59 158.84 811.59 154.45 C 811.59 150.07 808.02 146.5 803.64 146.5 C 799.25 146.5 795.68 150.07 795.68 154.45 C 795.68 158.84 799.25 162.41 803.64 162.41 Z M 778.18 195.82 L 778.18 180.57 L 790.91 167.84 L 815.24 192.17 L 817.49 189.92 L 805.09 177.52 L 822.73 159.89 L 841.82 178.98 L 841.82 195.82 Z M 841.82 132.18 L 841.82 174.48 L 823.85 156.51 C 823.23 155.89 822.22 155.89 821.6 156.51 L 802.84 175.27 L 792.03 164.47 C 791.41 163.84 790.41 163.84 789.78 164.47 L 778.18 176.07 L 778.18 132.18 Z M 843.41 129 L 776.59 129 C 775.71 129 775 129.71 775 130.59 L 775 197.41 C 775 198.29 775.71 199 776.59 199 L 843.41 199 C 844.29 199 845 198.29 845 197.41 L 845 130.59 C 845 129.71 844.29 129 843.41 129 Z" fill="#d45b07" stroke="none" pointer-events="all"/><rect x="250" y="159" width="287.85" height="40" fill="none" stroke="none" pointer-events="all"/><g fill="rgb(0, 0, 0)" font-family="Helvetica" clip-path="url(#mx-clip-253-162-282-34-0)" font-size="25px"><text x="254.5" y="190">Titre</text></g><rect x="740" y="199" width="140" height="30" fill="none" stroke="none" pointer-events="all"/><g fill="rgb(0, 0, 0)" font-family="Helvetica" clip-path="url(#mx-clip-743-202-134-24-0)" font-size="17px"><text x="744.5" y="221">Titre</text></g></g></svg>
